X: 1078
T: Amazing Mushroom, The
R: reel
M: 4/4
K: Dmajor
fA~A2 BcdB|AFDF EF/E/DE|F2AF GB~B2|Aceg fede|
fA~A2 BcdB|AFDF EF/E/DE|FA~A2 GB~B2|Aceg fdde:|
f2af gfed|gB~B2 BcdB|A2eA fAeA|Aceg fede|
f2af gfed|gB~B2 BcdB|A2eA fAeA|Aceg fdde:|

